!!!OTL: M&uuml;llerlied (243a), S. 520
!!!id: T0431
**kern
*clefG2
*k[f#c#]
*G:
{8d
=1
4g
8b
4a
8g
=2
4f#
8a
4g}
=3
{8e
=4
4e
8e
8g
8f#
8e
=5
4e
8d
4d}
=6
{8dd
=7
8dd
8dd
8b
4dd
8ee
=8
4.dd
4b}
=9
{8b
=10
8dd
8cc#
8b
8a
8b
8a
=11
8g
8f#
8e
4d}
=12
{8d
=13
8g
8g
8g
4a
8b
=14
4.a
4g}
==
*-
!!!minrhy: 8
!!!meters: 6/8 ]  ZZ[5
!!!cut: M&uuml;llerlied (243a), S. 520
!!!reg: Luxemburg
!!!trd: Singendes Volk, Esch-Alzette, 1937 posth.
!!!rhy1: X  X_XX_X  X_XX_
!!!rhy2: X  X_XXXX  X_XX_
!!!key: T0431  08  G 6/8 ]  ZZ[5
!!!mod: HEPTATONIK LYDISCH]  AMBITUS[9
!!!kad: 1-53-51
!!!akz: 12-71_-61-6-5_5553_521-5_1221_
!!!fot: 'a__b__c__d__aw_
!!!for: 'a__b__c__d__c__
!!!fok: '^a_^d_\__^d_^a_
!! PHRAS[AUFTAKTIG]
!!!fkt: Berufslied
!!!bem1: Reuland, hhh Heinrich Ernzen, 1908
!!!bem2: 243b)- Junglinster, hhh Nikolaus Dickes, um 1900
!! THILL; Mathias
!! PR[18] 2K[5] 2G[18] 3K[5] 3G[5] 4A[3] 4Ü[0] 5A[0] 6K[0] 6G[0]
!! 7K[0] 7G[0] 8A[0] MEHR[0] SI[37] ABS[38] SR[24] SP[13]
!! ST[12] 2k[5] 2g[26] 3k[11] 3g[3] 4d[0] 4ü[0] 5d[0] 6k[0] 6g[0]
!! 7k[0] 7g[0] 8d[0] mehr[0] si[45] dm[-8] sr[32] sp[13]
!! 1F[10] 2F[60] 3F[20] 4F[0] LF[0] 2P[10] 3P[0] 4P[0] TRI[0] DF[4] AB[40]
!! TF[0] U3K[0] U3[0] U4[0] U4Ü[0] U5[0] U6K[0] U6[0] U7K[0] U7[0]
!! N1[3] N2K[0] N2[5] N3K[0] N3[21] N4[18] N4Ü[0] N5[36] N6K[0] N6[15]
!!!n7k: 0] N7[0] O1[3] O2K[0] O2[0] O3K[0] O3[0] HÖ[0
!!!RNB: symbol: &uuml;  = u umlaut (UTF-8: Ã¼)
